X:7360
T:The Spotted Turtle
O:england
M:6/8
L:1/8
C:Steve Bennett
R:J
K:D
D (3DDD) FED|FAd cde|fdd ecc|dcd AFE|D (3DDD) FED|FAd cde|faf gdB|1Acd e
cA:|2Ace dcd|:
eAA gfe|dGd =cBA|GFG BEE|FGA Acd|eAA gfe|dGd =cBA|1GAB =ceg|fdc dcd:|2GA
B =ced|BGF GFE|:
